uploads/exercises/biceps.svg

<svg width="27" height="35" viewBox="0 0 27 35" fill="none" xmlns="http://www.w3.org/2000/svg">
<path d="M2.63585 28.9559L2.19177 29.4L2.63585 29.8441C2.85453 30.0628 2.85453 30.4172 2.63585 30.6359C2.52651 30.7453 2.38315 30.8 2.23993 30.8C2.09671 30.8 1.95335 30.7453 1.84401 30.6359L1.39993 30.1918L0.95585 30.6359C0.84651 30.7453 0.70315 30.8 0.55993 30.8C0.41671 30.8 0.27335 30.7453 0.16401 30.6359C-0.05467 30.4172 -0.05467 30.0628 0.16401 29.8441L0.60809 29.4L0.16401 28.9559C-0.05467 28.7372 -0.05467 28.3828 0.16401 28.1641C0.38269 27.9454 0.73717 27.9454 0.95585 28.1641L1.39993 28.6082L1.84401 28.1641C2.06269 27.9454 2.41717 27.9454 2.63585 28.1641C2.85453 28.3828 2.85467 28.7372 2.63585 28.9559ZM1.23515 12.6C1.54441 12.6 1.79515 12.3493 1.79515 12.04C1.79515 11.7307 1.54441 11.48 1.23515 11.48C0.92589 11.48 0.67515 11.7307 0.67515 12.04C0.67515 12.3493 0.92589 12.6 1.23515 12.6ZM10.3249 31.4082C10.3249 32.3609 9.55003 33.1358 8.59733 33.1358C7.64463 33.1358 6.86973 32.3609 6.86973 31.4082C6.86973 30.456 7.64463 29.6811 8.59733 29.6811C9.55003 29.6811 10.3249 30.456 10.3249 31.4082ZM9.20493 31.4082C9.20493 31.0734 8.93263 30.8011 8.59733 30.8011C8.26203 30.8011 7.98973 31.0734 7.98973 31.4082C7.98973 31.7435 8.26203 32.0158 8.59733 32.0158C8.93263 32.0158 9.20493 31.7433 9.20493 31.4082ZM26.8799 33.0569V34.44C26.8799 34.7495 26.6295 35 26.3199 35C26.0104 35 25.7599 34.7495 25.7599 34.44V33.4786C24.5486 33.0898 23.3657 32.3477 22.4601 31.3993C21.4192 30.3134 20.7614 29.1421 20.456 28.5295C20.339 28.559 20.2227 28.5881 20.1108 28.6136C18.2279 29.021 14.6049 29.5964 11.4264 28.8942C9.19849 28.3998 6.45645 26.972 3.27635 24.6499C3.10625 24.5246 2.69717 24.3677 2.39855 24.2535C2.01411 24.1063 1.80635 24.0237 1.66075 23.9072C1.37207 23.6809 1.20407 23.3346 1.20407 22.96V21.8903C1.20407 20.797 4.43723 7.1925 4.82167 6.03414C4.95677 5.60588 5.38937 5.40134 5.47463 5.36536L5.91577 5.16362C6.82493 2.17868 9.60197 0 12.8799 0C16.894 0 20.1599 3.26592 20.1599 7.28C20.1599 11.2941 16.894 14.56 12.8799 14.56C12.0982 14.56 11.3462 14.4329 10.6398 14.2037L11.0307 17.1468C12.1593 16.2187 13.5925 15.68 15.1199 15.68C16.5455 15.68 17.9071 16.1624 19.0096 16.9974C20.148 15.4846 22.032 14.56 24.0799 14.56C24.9292 14.56 25.7522 14.7143 26.525 15.0188C26.8133 15.1325 26.9543 15.4574 26.8412 15.7451C26.7275 16.0334 26.4014 16.1728 26.1148 16.0612C25.4728 15.808 24.788 15.68 24.0799 15.68C22.3467 15.68 20.7653 16.47 19.8458 17.7535C20.2817 18.2228 20.653 18.758 20.936 19.3512C21.0694 19.6307 20.9507 19.9648 20.6718 20.0977C20.3918 20.2311 20.0576 20.1124 19.9253 19.8335C19.0465 17.9906 17.1603 16.8 15.1199 16.8C12.9767 16.8 11.0528 18.0753 10.2177 20.0495C10.1274 20.2633 9.92019 20.3913 9.70193 20.3913C9.62913 20.3913 9.55479 20.377 9.48367 20.347C9.19877 20.2268 9.06591 19.8981 9.18617 19.6132C9.40849 19.0876 9.69773 18.6059 10.0365 18.1695L9.44223 13.6944C7.18977 12.4824 5.64907 10.1185 5.60567 7.39676C4.71219 10.844 2.34437 21.0617 2.32407 21.8926V22.96C2.32407 22.9895 2.33443 23.0125 2.35585 23.0289C2.40065 23.0552 2.63095 23.1431 2.79881 23.2077C3.19697 23.3597 3.64805 23.5325 3.93855 23.7464C6.99125 25.9755 9.59273 27.3399 11.6686 27.8004C14.7486 28.4817 18.4291 27.831 19.8679 27.5198C21.2822 27.1982 23.3214 26.4452 23.3416 26.4376C23.609 26.3386 23.9093 26.4568 24.0367 26.7116C24.2664 27.1677 25.0709 28.4211 26.0196 28.7372C26.3128 28.8345 26.4714 29.1518 26.3734 29.4455C26.2957 29.6801 26.077 29.8283 25.8424 29.8283C25.7839 29.8283 25.7242 29.819 25.6652 29.7993C24.52 29.4181 23.6788 28.2817 23.284 27.6485C22.8759 27.7929 22.2339 28.0126 21.5546 28.2199C21.8614 28.8042 22.4274 29.7473 23.2686 30.6257C24.1387 31.5357 25.2998 32.2237 26.4559 32.514C26.7055 32.5763 26.8799 32.8005 26.8799 33.0569ZM6.71993 7.28C6.71993 10.6767 9.48325 13.44 12.8799 13.44C16.2766 13.44 19.0399 10.6767 19.0399 7.28C19.0399 3.88332 16.2766 1.12 12.8799 1.12C9.48325 1.12 6.71993 3.88332 6.71993 7.28ZM16.69 25.7709C11.615 26.7848 10.0822 23.9477 10.0209 23.8295C9.94763 23.6835 9.81407 23.5763 9.65559 23.5369L7.41559 22.9769C7.11487 22.9009 6.81135 23.0836 6.73687 23.3843C6.66141 23.6841 6.84411 23.988 7.14427 24.0631L9.15789 24.5668C9.59861 25.2438 11.1299 27.1114 14.6119 27.1114C15.2993 27.1114 16.0632 27.0386 16.9098 26.8692C17.2128 26.8085 17.4096 26.5138 17.349 26.2102C17.2888 25.9071 16.9973 25.7086 16.69 25.7709ZM8.39993 7.28C8.39993 4.8097 10.4096 2.8 12.8799 2.8C15.3502 2.8 17.3599 4.8097 17.3599 7.28C17.3599 9.7503 15.3502 11.76 12.8799 11.76C10.4096 11.76 8.39993 9.7503 8.39993 7.28ZM9.51993 7.28C9.51993 9.13276 11.0272 10.64 12.8799 10.64C14.7327 10.64 16.2399 9.13276 16.2399 7.28C16.2399 5.42724 14.7327 3.92 12.8799 3.92C11.0272 3.92 9.51993 5.42724 9.51993 7.28ZM10.804 8.56408L11.3682 7.99988C11.2635 7.78092 11.1999 7.53858 11.1999 7.28C11.1999 7.02142 11.2635 6.77922 11.3682 6.56012L10.804 5.99592C10.5853 5.77724 10.5853 5.42276 10.804 5.20408C11.0227 4.9854 11.3772 4.9854 11.5958 5.20408L12.16 5.76828C12.379 5.66356 12.6213 5.6 12.8799 5.6C13.1385 5.6 13.3807 5.66356 13.5998 5.76828L14.164 5.20408C14.3827 4.9854 14.7372 4.9854 14.9558 5.20408C15.1745 5.42276 15.1745 5.77724 14.9558 5.99592L14.3916 6.56012C14.4964 6.77908 14.5599 7.02142 14.5599 7.28C14.5599 7.53858 14.4964 7.78078 14.3916 7.99988L14.9558 8.56408C15.1745 8.78276 15.1745 9.13724 14.9558 9.35592C14.8465 9.46526 14.7031 9.52 14.5599 9.52C14.4167 9.52 14.2733 9.46526 14.164 9.35592L13.5998 8.79172C13.3809 8.89644 13.1385 8.96 12.8799 8.96C12.6213 8.96 12.3791 8.89644 12.16 8.79172L11.5958 9.35592C11.4865 9.46526 11.3431 9.52 11.1999 9.52C11.0567 9.52 10.9134 9.46526 10.804 9.35592C10.5853 9.13724 10.5853 8.78276 10.804 8.56408Z" fill="#f1e8e8"/>
</svg>

<svg width="27" height="35" fill="none" xmlns="http://www.w3.org/2000/svg"><path d="m2.636 28.956-.444.444.444.444a.56.56 0 1 1-.792.792l-.444-.444-.444.444a.558.558 0 0 1-.792 0 .56.56 0 0 1 0-.792l.444-.444-.444-.444a.56.56 0 1 1 .792-.792l.444.444.444-.444a.56.56 0 1 1 .792.792ZM1.236 12.6a.56.56 0 1 0 0-1.12.56.56 0 0 0 0 1.12Zm9.089 18.808a1.73 1.73 0 0 1-1.728 1.728 1.73 1.73 0 0 1-1.727-1.728 1.73 1.73 0 0 1 1.727-1.727 1.73 1.73 0 0 1 1.728 1.727Zm-1.12 0a.608.608 0 1 0-1.216.002.608.608 0 0 0 1.216-.002Zm17.675 1.649v1.383a.56.56 0 1 1-1.12 0v-.961a8.086 8.086 0 0 1-3.3-2.08 11.997 11.997 0 0 1-2.004-2.87c-.117.03-.233.06-.345.085-1.883.407-5.506.982-8.685.28-2.228-.494-4.97-1.922-8.15-4.244-.17-.125-.579-.282-.877-.396-.385-.148-.593-.23-.738-.347a1.197 1.197 0 0 1-.457-.947v-1.07c0-1.093 3.233-14.698 3.618-15.856.135-.428.567-.633.653-.669l.44-.201C6.826 2.179 9.603 0 12.88 0c4.014 0 7.28 3.266 7.28 7.28s-3.266 7.28-7.28 7.28a7.244 7.244 0 0 1-2.24-.356l.39 2.943a6.428 6.428 0 0 1 4.09-1.467c1.426 0 2.787.482 3.89 1.317 1.138-1.512 3.022-2.437 5.07-2.437.85 0 1.672.154 2.445.459a.56.56 0 1 1-.41 1.042 5.522 5.522 0 0 0-2.035-.381c-1.733 0-3.315.79-4.234 2.073.436.47.807 1.005 1.09 1.598a.56.56 0 1 1-1.01.483A5.35 5.35 0 0 0 15.12 16.8a5.313 5.313 0 0 0-4.902 3.25.56.56 0 1 1-1.032-.437 6.454 6.454 0 0 1 .85-1.444l-.594-4.475a7.284 7.284 0 0 1-3.836-6.297c-.894 3.447-3.262 13.665-3.282 14.496v1.067c0 .03.01.052.032.069.045.026.275.114.443.179.398.152.85.325 1.14.538 3.052 2.23 5.654 3.594 7.73 4.054 3.08.682 6.76.031 8.199-.28 1.414-.322 3.453-1.075 3.474-1.082a.56.56 0 0 1 .695.274c.23.456 1.034 1.71 1.983 2.025a.56.56 0 1 1-.355 1.062c-1.145-.38-1.986-1.517-2.381-2.15-.408.144-1.05.364-1.73.57a10.83 10.83 0 0 0 1.715 2.407c.87.91 2.03 1.598 3.187 1.888a.56.56 0 0 1 .424.543ZM6.72 7.28a6.167 6.167 0 0 0 6.16 6.16 6.167 6.167 0 0 0 6.16-6.16 6.167 6.167 0 0 0-6.16-6.16 6.167 6.167 0 0 0-6.16 6.16Zm9.97 18.49c-5.075 1.015-6.608-1.822-6.67-1.94a.56.56 0 0 0-.364-.293l-2.24-.56a.56.56 0 1 0-.271 1.086l2.013.504c.44.677 1.972 2.544 5.454 2.544.687 0 1.451-.072 2.298-.242a.56.56 0 0 0-.22-1.098ZM8.4 7.28c0-2.47 2.01-4.48 4.48-4.48 2.47 0 4.48 2.01 4.48 4.48 0 2.47-2.01 4.48-4.48 4.48-2.47 0-4.48-2.01-4.48-4.48Zm1.12 0a3.364 3.364 0 0 0 3.36 3.36 3.364 3.364 0 0 0 3.36-3.36 3.364 3.364 0 0 0-3.36-3.36 3.364 3.364 0 0 0-3.36 3.36Zm1.284 1.284L11.368 8a1.662 1.662 0 0 1-.168-.72c0-.259.064-.5.168-.72l-.564-.564a.56.56 0 1 1 .792-.792l.564.564c.219-.104.461-.168.72-.168.258 0 .5.064.72.168l.564-.564a.56.56 0 1 1 .792.792l-.564.564c.104.22.168.461.168.72 0 .259-.064.5-.168.72l.564.564a.56.56 0 1 1-.792.792l-.564-.564a1.662 1.662 0 0 1-.72.168c-.259 0-.5-.064-.72-.168l-.564.564a.558.558 0 0 1-.792 0 .56.56 0 0 1 0-.792Z" fill="#946E86"/></svg>
